SF_Symbols/externaldrive.connected.to.line.below.fill.svg

<?xml version="1.0" encoding="UTF-8"?>
<svg xmlns="http://www.w3.org/2000/svg" xmlns:xlink="http://www.w3.org/1999/xlink" width="24" height="24" viewBox="0 0 24 24" version="1.1">
<g id="surface1">
<path style=" stroke:none;fill-rule:nonzero;fill:rgb(100%,100%,100%);fill-opacity:1;" d="M 4.980469 7.074219 L 19.011719 7.074219 C 19.871094 7.074219 20.660156 7.253906 21.375 7.613281 L 19.15625 2.261719 C 18.871094 1.550781 18.433594 1.015625 17.84375 0.644531 C 17.253906 0.277344 16.554688 0.09375 15.75 0.09375 L 8.238281 0.09375 C 7.433594 0.09375 6.734375 0.277344 6.144531 0.644531 C 5.554688 1.015625 5.117188 1.550781 4.832031 2.261719 L 2.605469 7.613281 C 3.320312 7.253906 4.109375 7.074219 4.980469 7.074219 Z M 4.980469 15.675781 L 19.011719 15.675781 C 19.738281 15.675781 20.378906 15.523438 20.925781 15.21875 C 21.484375 14.90625 21.917969 14.476562 22.230469 13.925781 C 22.542969 13.378906 22.699219 12.742188 22.699219 12.019531 C 22.699219 11.296875 22.542969 10.664062 22.230469 10.113281 C 21.917969 9.558594 21.484375 9.125 20.925781 8.8125 C 20.378906 8.5 19.738281 8.34375 19.011719 8.34375 L 4.980469 8.34375 C 4.25 8.34375 3.609375 8.5 3.050781 8.8125 C 2.496094 9.125 2.0625 9.558594 1.75 10.113281 C 1.445312 10.664062 1.292969 11.296875 1.292969 12.019531 C 1.292969 12.742188 1.445312 13.378906 1.75 13.925781 C 2.0625 14.476562 2.496094 14.90625 3.050781 15.21875 C 3.609375 15.523438 4.25 15.675781 4.980469 15.675781 Z M 17.667969 12.019531 C 17.667969 11.703125 17.785156 11.421875 18.019531 11.1875 C 18.265625 10.945312 18.546875 10.824219 18.863281 10.824219 C 19.191406 10.824219 19.472656 10.945312 19.707031 11.1875 C 19.953125 11.421875 20.074219 11.703125 20.074219 12.019531 C 20.074219 12.355469 19.953125 12.636719 19.707031 12.863281 C 19.472656 13.09375 19.191406 13.210938 18.863281 13.21875 C 18.546875 13.21875 18.265625 13.105469 18.019531 12.875 C 17.785156 12.644531 17.667969 12.359375 17.667969 12.019531 Z M 11.15625 20.769531 L 12.832031 20.769531 L 12.832031 14.90625 L 11.15625 14.90625 Z M 3.332031 21.605469 L 20.65625 21.605469 C 20.886719 21.605469 21.078125 21.519531 21.238281 21.355469 C 21.40625 21.195312 21.488281 21 21.488281 20.769531 C 21.488281 20.535156 21.40625 20.332031 21.238281 20.167969 C 21.078125 20.007812 20.886719 19.925781 20.65625 19.925781 L 3.332031 19.925781 C 3.105469 19.925781 2.90625 20.007812 2.738281 20.167969 C 2.578125 20.332031 2.5 20.535156 2.5 20.769531 C 2.5 21 2.578125 21.195312 2.738281 21.355469 C 2.90625 21.519531 3.105469 21.605469 3.332031 21.605469 Z M 11.988281 23.136719 C 12.421875 23.136719 12.8125 23.027344 13.167969 22.8125 C 13.527344 22.597656 13.8125 22.3125 14.019531 21.957031 C 14.234375 21.605469 14.34375 21.210938 14.34375 20.78125 C 14.34375 20.351562 14.234375 19.953125 14.019531 19.59375 C 13.8125 19.238281 13.527344 18.953125 13.167969 18.738281 C 12.8125 18.53125 12.421875 18.425781 11.988281 18.425781 C 11.566406 18.425781 11.171875 18.53125 10.8125 18.738281 C 10.457031 18.953125 10.171875 19.238281 9.957031 19.59375 C 9.75 19.953125 9.644531 20.351562 9.644531 20.78125 C 9.644531 21.210938 9.75 21.605469 9.957031 21.957031 C 10.171875 22.3125 10.457031 22.597656 10.8125 22.8125 C 11.171875 23.027344 11.566406 23.136719 11.988281 23.136719 Z M 11.988281 23.136719 "/>
</g>
</svg>

<svg xmlns="http://www.w3.org/2000/svg" width="24" height="24"><path style="stroke:none;fill-rule:nonzero;fill:#fff;fill-opacity:1" d="M4.98 7.074h14.032c.86 0 1.648.18 2.363.54l-2.219-5.352c-.285-.711-.722-1.246-1.312-1.617-.59-.368-1.29-.551-2.094-.551H8.238c-.804 0-1.504.183-2.093.55-.59.372-1.028.907-1.313 1.618L2.605 7.613c.715-.36 1.504-.539 2.375-.539Zm0 8.602h14.032c.726 0 1.367-.153 1.914-.457.547-.301 1-.75 1.304-1.293.313-.547.47-1.184.47-1.906 0-.723-.157-1.356-.47-1.907a3.368 3.368 0 0 0-1.304-1.3c-.547-.313-1.188-.47-1.914-.47H4.98c-.73 0-1.37.157-1.93.47a3.358 3.358 0 0 0-1.3 1.3c-.305.551-.457 1.184-.457 1.907 0 .722.152 1.359.457 1.906.313.55.746.98 1.3 1.293.56.304 1.2.457 1.93.457Zm12.688-3.656c0-.317.117-.598.352-.832a1.164 1.164 0 0 1 1.687 0c.246.234.367.515.367.832 0 .335-.12.617-.367.843-.234.23-.516.348-.844.356-.316 0-.597-.114-.843-.344a1.156 1.156 0 0 1-.352-.855Zm-6.512 8.75h1.676v-5.864h-1.676Zm-7.824.835h17.324c.23 0 .422-.085.582-.25a.777.777 0 0 0 .25-.585.811.811 0 0 0-.25-.602.797.797 0 0 0-.582-.242H3.332a.84.84 0 0 0-.594.242.844.844 0 0 0-.238.602c0 .23.078.425.238.585.168.165.367.25.594.25Zm8.656 1.532c.434 0 .825-.11 1.18-.325.36-.214.645-.5.852-.855.214-.352.324-.746.324-1.176 0-.43-.11-.828-.324-1.187a2.414 2.414 0 0 0-.852-.856 2.32 2.32 0 0 0-1.18-.312c-.422 0-.816.105-1.175.312-.356.215-.641.5-.856.856-.207.36-.312.758-.312 1.187 0 .43.105.824.312 1.176.215.355.5.64.855.855.36.215.754.325 1.176.325Zm0 0"/></svg>
